!!!COM: Palestrina, Giovanni Perluigi da
!!!OPR: Sanctorum meritis
!!!OTL: Credo
**kern	**kern	**kern	**kern
*Ibass	*Itenor	*Icalto	*Icant
!Bassus	!Tenor	!Altus	!Cantus
*clefF4	*clefGv2	*clefG2	*clefG2
*k[]	*k[]	*k[]	*k[]
*E:phr	*E:phr	*E:phr	*E:phr
*M4/2	*M4/2	*M4/2	*M4/2
=1	=1	=1	=1
0r	0r	0r	1d
.	.	.	1e
=2	=2	=2	=2
0r	1D	0r	1f
.	1E	.	2g
.	.	.	2g
=3	=3	=3	=3
0r	1F	1A	1a
.	2G	1B	1g
.	2G	.	.
=4	=4	=4	=4
0r	1A	1c	2r
.	.	.	1cc
.	1G	2d	.
.	.	2d	2b
=5	=5	=5	=5
0r	1c	1e	2g
.	.	.	2.a
.	2B	[1d	.
.	.	.	4g
.	2G	.	[2g
=6	=6	=6	=6
1D	1A	1d]	2g]
.	.	.	2f#
1E	4G	2r	1g
.	4A	.	.
.	4B	2g	.
.	4c	.	.
=7	=7	=7	=7
1F	4d	1f	2r
.	4c	.	.
.	2.c	.	1a
2G	.	2d	.
.	4B	.	.
2G	4B	[2e	[2g
.	8A	.	.
.	8B	.	.
=8	=8	=8	=8
1A	1c	4e]	2g]
.	.	4d	.
.	.	2c	2f#
[1G	1d	2B	1g
.	.	2d	.
=9	=9	=9	=9
2G]	1B	2d	0g
2G	.	2d	.
2G	2B	2e	.
2G	2B	[2d	.
=10	=10	=10	=10
1A	1c	2d]	1r
.	.	1c	.
[1G	1d	.	2r
.	.	4B	2g
.	.	4A	.
=11	=11	=11	=11
1G]	1r	1B	2g
.	.	.	2g
1F	2r	4A	1a
.	.	4B	.
.	2c	4c	.
.	.	4d	.
=12	=12	=12	=12
1E	2c	1e	2g
.	2c	.	2g
1D	1d	2A	1f
.	.	[2B	.
=13	=13	=13	=13
0E	2c	2B]	[0e
.	2c	1A	.
.	1B	.	.
.	.	2G#	.
=14	=14	=14	=14
1AA	0A	4A	1e]
.	.	4B	.
.	.	4c	.
.	.	4d	.
1r	.	1e	2.cc
.	.	.	4cc
=15	=15	=15	=15
2.c	2.e	1r	2cc
.	.	.	2cc
4c	4e	.	.
2c	2e	2.g	2g
2c	2e	.	[2cc
.	.	4g	.
=16	=16	=16	=16
1G	1d	2g	4cc]
.	.	.	4b
.	.	2g	2.b
2.A	2.c	2e	.
.	.	.	4a
.	.	[2e	[2a
4A	8B	.	.
.	8A	.	.
=17	=17	=17	=17
1E	2B	2e]	2a]
.	2B	2e	2g#
1r	[1A	2c	[1a
.	.	[2f	.
=18	=18	=18	=18
1.F	1A]	2f]	0a]
.	.	2f	.
.	2r	2.c	.
2F	[2c	.	.
.	.	4d	.
=19	=19	=19	=19
2.C	2c]	2e	0r
.	2c	2e	.
4D	.	.	.
2E	2G	1B	.
2E	2G	.	.
=20	=20	=20	=20
0AA	2A	2.c	2r
.	2A	.	1cc
.	.	4d	.
.	2E	[1e	.
.	[2c	.	2cc
=21	=21	=21	=21
1r	2c]	2e]	2g
.	2B	2d	2g
2r	2.A	2f	2a
[2c	.	[2e	2a
.	4B	.	.
=22	=22	=22	=22
2c]	4c	2e]	2.e
.	4d	.	.
2c	1e	1g	.
.	.	.	4f
2G	.	.	4g
.	.	.	4a
2G	2d	2g	[2b
=23	=23	=23	=23
1A	2c	0e	4b]
.	.	.	4a
.	4B	.	1a
.	4A	.	.
1E	2B	.	.
.	2B	.	2g#
=24	=24	=24	=24
0A	2A	2r	1a
.	1c#	1e	.
.	.	.	2r
.	2c#	2e	[2a
=25	=25	=25	=25
0r	1d	1f	2a]
.	.	.	2a
.	2.G	2.d	1b
.	4A	4c	.
=26	=26	=26	=26
0r	2B	2d	2.g
.	2.c	2.e	.
.	.	.	4f
.	.	.	2g
.	4B	4d	.
.	4A	[2f	[2a
.	4G	.	.
=27	=27	=27	=27
1r	2F	2f]	2a]
.	2C	2.e	2g
[1A	1D	.	1f
.	.	4d	.
.	.	[2d	.
=28	=28	=28	=28
1A]	1r	2d]	1e
.	.	2c#	.
1B	[1d	2d	1r
.	.	2G	.
=29	=29	=29	=29
2.G	1d]	2.B	0r
4F#	.	4A	.
2G	1e	2B	.
[2A	.	[2c	.
=30	=30	=30	=30
4A]	2.c	2c]	0a
4G	.	.	.
1F	.	2A	.
.	4B	.	.
.	2c	1f	.
2D	[2d	.	.
=31	=31	=31	=31
2.G	4d]	1d	1b
.	4c	.	.
.	4B	.	.
4F	4A	.	.
4E	2B	1e	2.g
4D	.	.	.
[2C	[2c	.	.
.	.	.	4f
=32	=32	=32	=32
2C]	4c]	1e	2g
.	4B	.	.
2AA	4c	.	1a
.	4A	.	.
1E	1B	2r	.
.	.	[2e	2g#
=33	=33	=33	=33
2AA	2.A	2e]	1a
1A	.	2c	.
.	4c	.	.
.	1B	1d	1r
2G	.	.	.
=34	=34	=34	=34
2A	1A	2f	2r
1c	.	4e	1a
.	.	4d	.
.	1r	4e	.
.	.	4c	.
2B	.	4d	2g#
.	.	4e	.
=35	=35	=35	=35
2.A	2r	2f	2a
.	1A	2e	1cc
8G	.	.	.
8F	.	.	.
1E	.	2.e	.
.	2G	.	2b
.	.	4d	.
=36	=36	=36	=36
2.F	2A	4c	2.a
.	.	4B	.
.	1c	1A	.
8E	.	.	8g
8D	.	.	8f
2C	.	.	2e
2E	2B	2G	2g
=37	=37	=37	=37
2.F	2.A	2c	1.f
.	.	2c	.
4E	4G	.	.
2D	2A	1d	.
2D	2B	.	2f
=38	=38	=38	=38
0C	0c	2r	2e
.	.	1e	1g
.	.	2c	2e
=39	=39	=39	=39
0r	1r	2d	2f
.	.	2e	2g
.	2r	4A	2.a
.	.	4B	.
.	[2A	4c	.
.	.	4d	4b
=40	=40	=40	=40
0r	2A]	4e	4cc
.	.	4c	4a
.	2F	2f	1dd
.	2G	1e	.
.	2A	.	2cc
=41	=41	=41	=41
0r	4D	1f	2.a
.	4E	.	.
.	4F	.	.
.	4G	.	4b
.	4A	[1e	2.cc
.	4B	.	.
.	[2c	.	.
.	.	.	8b
.	.	.	8a
=42	=42	=42	=42
2r	2c]	2e]	0g
1G	4B	4d	.
.	4A	4c	.
.	2B	2d	.
2E	[2c	2e	.
=43	=43	=43	=43
2F	2c]	1d	2r
2G	2B	.	2g
2.A	1c	2r	2e
.	.	[2c	2f
8G	.	.	.
8F	.	.	.
=44	=44	=44	=44
4E	0r	2c]	2g
4C	.	.	.
2F	.	2A	1a
2E	.	2B	.
2E	.	2c	[2g
=45	=45	=45	=45
0D	1.A	2.d	2g]
.	.	.	4f
.	.	8c	4e
.	.	8B	.
.	.	2A	2.f
.	2F	[2d	.
.	.	.	4d
=46	=46	=46	=46
0r	2G	2d]	1e
.	2A	2c#	.
.	4D	4d	2f
.	4E	4c	.
.	4F	4A	2f
.	4G	4B	.
=47	=47	=47	=47
1r	4A	4c	1e
.	4B	4d	.
.	4c	4e	.
.	4A	4c	.
2r	2B	2d	1r
2F	[2A	2c	.
=48	=48	=48	=48
2D	2A]	1B	2r
2E	2G	.	2e
1F	1A	2r	2c
.	.	2A	2d
=49	=49	=49	=49
2.E	1B	2A	1e
.	.	2G#	.
4D	.	.	.
4C	2r	1A	1e
4AA	.	.	.
[2A	2c	.	.
=50	=50	=50	=50
2A]	2A	0e	1r
2G#	2B	.	.
2A	4c	.	2r
.	4d	.	.
2A	4e	.	2cc
.	4c	.	.
=51	=51	=51	=51
2F	1d	2r	2a
2G	.	2g	2b
2A	1c	2e	2cc
2A	.	2f#	2cc
=52	=52	=52	=52
1G	2r	2.g	2.b
.	2d	.	.
.	.	8f	4a
.	.	8e	.
1r	2B	2d	[1g
.	2c	2e	.
=53	=53	=53	=53
1.G	2d	2.B	1g]
.	2d	.	.
.	.	4c	.
.	1G	4d	2r
.	.	4B	.
2E	.	[2e	[2g
=54	=54	=54	=54
1A	2r	2e]	2g]
.	1c	4d	2f#
.	.	4c	.
1G	.	1d	1g
.	2B	.	.
=55	=55	=55	=55
2r	1e	2r	1g
2E	.	1c	.
2F	2d	.	1r
2G	2d	2B	.
=56	=56	=56	=56
4C	2c	1e	0r
4D	.	.	.
4E	4G	.	.
4F	4A	.	.
4G	4B	1d	.
4A	4c	.	.
4B	4d	.	.
4G	4B	.	.
=57	=57	=57	=57
4A	4c	0r	0r
4B	4d	.	.
2.c	2e	.	.
.	4A	.	.
4B	4B	.	.
[2A	4c	.	.
.	4A	.	.
=58	=58	=58	=58
2A]	1B	2r	1r
2G#	.	1e	.
2.A	1A	.	2r
.	.	2c	[2a
4G	.	.	.
=59	=59	=59	=59
2F	0r	2d	2a]
2E	.	2e	2g
1D	.	2f	2a
.	.	4e	2b
.	.	4d	.
=60	=60	=60	=60
1r	1r	2c	2cc
.	.	2d	4b
.	.	.	4a
2r	2r	1e	2g
[2A	[2c	.	2a
=61	=61	=61	=61
2A]	2c]	2r	1e
2G	2B	1e	.
2A	2c	.	1r
2B	2B	2d	.
=62	=62	=62	=62
2c	2A	2e	1r
4B	2D	2f	.
4A	.	.	.
2G	2d	2g	2r
2A	2c	4f	[2a
.	.	4e	.
=63	=63	=63	=63
2D	1B	2f	2a]
2E	.	1e	2g
2F	1r	.	2a
2G	.	2d	2b
=64	=64	=64	=64
2.C	2r	1e	2cc
.	1A	.	4b
4D	.	.	4a
1E	.	2r	2cc
.	2G	[2e	2b
=65	=65	=65	=65
0r	2A	2e]	2a
.	2B	2d	2.g
.	2c	2e	.
.	.	.	4f
.	4B	2f	2d
.	4A	.	.
=66	=66	=66	=66
0r	2G	4g	1e
.	.	4f	.
.	2.A	4e	.
.	.	4d	.
.	.	2c	2r
.	4E	.	.
.	2G	2B	[2e
=67	=67	=67	=67
2r	1F	1A	2e]
1A	.	.	2d
.	1E	1B	1e
2G	.	.	.
=68	=68	=68	=68
2A	0r	2c	2f
2B	.	2d	2.g
2c	.	[1e	.
.	.	.	4f
4B	.	.	4g
4A	.	.	4a
=69	=69	=69	=69
2G	2r	2e]	2b
2A	1A	2e	2cc
1E	.	1e	2b
.	2G	.	[2cc
=70	=70	=70	=70
2F	2A	2d	2cc]
2G	2B	2d	2b
1C	1c	1e	4a
.	.	.	4g
.	.	.	[2g
=71	=71	=71	=71
1D	2.A	2r	2g]
.	.	2d	2f#
.	4A	.	.
2r	1G	2d	[1g
2G	.	2d	.
=72	=72	=72	=72
2G	0r	4B	0g]
.	.	4c	.
2G	.	4d	.
.	.	4B	.
4E	.	4c	.
4F	.	4d	.
4G	.	2e	.
4E	.	.	.
=73	=73	=73	=73
4F	1r	2d	0r
4G	.	.	.
2A	.	2c	.
2G	2r	2B	.
[2F	2c	4A	.
.	.	4G	.
=74	=74	=74	=74
2F]	2c	4A	1r
.	.	4B	.
2E	2c	1c	.
2F	1d	.	2r
2G	.	2B	2g
=75	=75	=75	=75
0C	0e	2c	2g
.	.	2c	2g
.	.	2c	4e
.	.	.	4f
.	.	2c	4g
.	.	.	4e
=76	=76	=76	=76
0r	2r	2d	4f
.	.	.	4g
.	2A	2f	2a
.	4c	4e	2g
.	4B	4d	.
.	4A	4c	[2f
.	4G	4B	.
=77	=77	=77	=77
0r	4F	4A	4f]
.	4G	4B	4e
.	2A	1c	2c
.	1G	.	1d
.	.	2B	.
=78	=78	=78	=78
2r	2r	2.c	1e
1c	1e	.	.
.	.	8B	.
.	.	8A	.
.	.	1G	1r
[2B	[2d	.	.
=79	=79	=79	=79
2B]	2d]	1A	2r
1A	2c	.	1cc
.	1e	1E	.
2G	.	.	[2b
=80	=80	=80	=80
1F	4d	2r	2b]
.	4c	.	.
.	4B	2A	1a
.	4A	.	.
1E	2B	1e	.
.	2c	.	2g
=81	=81	=81	=81
1.D	2d	1A	1.f
.	4c	.	.
.	4B	.	.
.	[1A	1d	.
4C	.	.	4e
4BB	.	.	4d
=82	=82	=82	=82
0AA	2A]	2c	0e
.	4G	4B	.
.	4F	4A	.
.	2E	1c	.
.	[2A	.	.
=83	=83	=83	=83
1E	2A]	1B	1e
.	2G#	.	.
1r	1r	1r	1r
=84	=84	=84	=84
0E	0B	0e	0g#
=85	=85	=85	=85
1A	1.c	1e	1a
1A	.	1e	1cc
.	2A	.	.
=86	=86	=86	=86
1G#	1B	1.e	1b
1A	1c	.	1a
.	.	2e	.
=87	=87	=87	=87
1E	2B	2e	1g
.	2G	2B	.
2r	2A	2c	1e
2C	2c	2e	.
=88	=88	=88	=88
1D	2B	2.d	1f
.	2.A	.	.
.	.	8c	.
.	.	8B	.
1F	.	1A	1a
.	8B	.	.
.	8c	.	.
.	[2d	.	.
=89	=89	=89	=89
1E	4d]	1c	1g
.	4c	.	.
.	1c	.	.
1D	.	1d	1f
.	2B	.	.
=90	=90	=90	=90
1C	[0c	0G	1e
1E	.	.	1g
=91	=91	=91	=91
1F	1c]	1r	1a
1A	1r	1c	1cc
=92	=92	=92	=92
1G	2r	1d	1b
.	2G	.	.
1F	1A	1f	1a
=93	=93	=93	=93
1C	1c	1e	1.g
[1D	1B	[1d	.
.	.	.	4f
.	.	.	4e
=94	=94	=94	=94
2D]	1.A	2d]	2f
2D	.	2d	2f
4AA	.	[1c	[1e
4BB	.	.	.
4C	2A	.	.
4D	.	.	.
=95	=95	=95	=95
1E	1G	2c]	1e]
.	.	4B	.
.	.	4A	.
1G	1r	1B	1d
=96	=96	=96	=96
1C	0G	1c	1e
1E	.	2B	1g
.	.	2c	.
=97	=97	=97	=97
1D	1A	1d	1f
1C	2c	[1g	1e
.	[2c	.	.
=98	=98	=98	=98
0G	2c]	0g]	0d
.	4B	.	.
.	4A	.	.
.	2B	.	.
.	2B	.	.
=99	=99	=99	=99
0C	0c	0e	0g
*	*	*	*-
!! Crucifixus
*Itenor	*Icalto	*Icant
!Tenor	!Altus	!Cantus
*clefGv2	*clefG2	*clefG2
*k[]	*k[]	*k[]
*E:phr	*E:phr	*E:phr
*M4/2	*M4/2	*M4/2
=100	=100	=100
0r	0r	1.g
.	.	2g
=101	=101	=101
0r	1r	2a
.	.	2g
.	[1c	2.cc
.	.	4b
=102	=102	=102
0r	2c]	2a
.	2c	2g
.	2d	2f
.	2c	2e
=103	=103	=103
0r	2.f	4d
.	.	4e
.	.	4f
.	4e	4g
.	2d	1a
.	2c	.
=104	=104	=104
0r	2B	2g
.	2A	1cc
.	4G	.
.	4A	.
.	4B	2b
.	4c	.
=105	=105	=105
0r	4d	2a
.	4e	.
.	4f	2a
.	4d	.
.	2e	2g
.	4d	4f
.	4c	4e
=106	=106	=106
1.G	2B	2d
.	1c	2e
.	.	1d
2G	2B	.
=107	=107	=107
2A	2c	2r
2G	2d	1g
[1c	1e	.
.	.	2g
=108	=108	=108
2c]	1d	2a
2B	.	2g
2.A	2r	2.cc
.	[2c	.
4G	.	4b
=109	=109	=109
2F	2c]	2a
2E	2c	2g
2D	2d	2f
2A	2c	2e
=110	=110	=110
2.D	2.f	4d
.	.	4e
.	.	4f
4E	4e	4g
4F	2d	4a
4G	.	4b
2A	2c	4cc
.	.	4a
=111	=111	=111
2G	2d	2b
2A	2c	1a
1E	1B	.
.	.	2g#
=112	=112	=112
2r	1A	2.a
2A	.	.
.	.	8g
.	.	8f
2.c	2r	1e
.	2e	.
4c	.	.
=113	=113	=113
2B	2.g	0r
2G	.	.
.	4g	.
2A	2f	.
2B	2d	.
=114	=114	=114
4c	2e	2r
4B	.	.
4A	2.f	2a
4G	.	.
1A	.	2.cc
.	4e	.
.	4e	.
.	8d	4cc
.	8c	.
=115	=115	=115
2.G	2d	2b
.	1e	2g
4E	.	.
1F	.	2.a
.	2d	.
.	.	4b
=116	=116	=116
1E	0e	2cc
.	.	4b
.	.	4a
2r	.	2g
[2A	.	2a
=117	=117	=117
2A]	2r	1e
2E	1e	.
1G	.	1r
.	2B	.
=118	=118	=118
2D	1d	2r
2.F	.	1a
.	2A	.
4E	.	.
4C	[2c	2e
4D	.	.
=119	=119	=119
4E	4c]	1g
4D	4B	.
4E	4G	.
4F	4A	.
2G	4B	2d
.	4c	.
2F	[2d	[2f
=120	=120	=120
1A	4d]	4f]
.	4c	4e
.	1c	4e
.	.	8d
.	.	8c
1G	.	2d
.	2B	2d
=121	=121	=121
2r	1c	0e
2c	.	.
2A	2r	.
2G	2g	.
=122	=122	=122
2A	2e	0r
2B	2d	.
2c	2e	.
2A	2f	.
=123	=123	=123
2B	4g	2r
.	4f	.
2.c	4e	2cc
.	4d	.
.	4e	2a
4d	4f	.
2B	2d	2g
=124	=124	=124
2A	2e	2a
2G	2.g	2b
1A	.	2cc
.	4f	.
.	2f	2a
=125	=125	=125
0G	1e	2b
.	.	2.cc
.	2d	.
.	.	4b
.	2d	2b
=126	=126	=126
2r	1f	1a
2A	.	.
1c	2e	[1g
.	2c	.
=127	=127	=127
2B	4d	1g]
.	4c	.
2G	4d	.
.	4e	.
4A	4f	1r
4G	4e	.
4A	4c	.
4B	4d	.
=128	=128	=128
4c	4e	0r
4B	4f	.
4G	1g	.
4A	.	.
4B	.	.
4c	.	.
[2d	2f	.
=129	=129	=129
2d]	1e	1r
2c#	.	.
1d	1d	2r
.	.	2a
=130	=130	=130
1G	2r	2b
.	2d	2dd
1r	2e	2cc
.	2g	2b
=131	=131	=131
1r	2f	1cc
.	2e	.
2r	1f	1a
2A	.	.
=132	=132	=132
2B	4d	0r
.	4e	.
2d	4f	.
.	4g	.
2c	2a	.
2B	4g	.
.	4f	.
=133	=133	=133
1c	1e	2r
.	.	2g
1A	2r	2a
.	2c	2cc
=134	=134	=134
0r	2d	2b
.	2f	2a
.	2e	1b
.	2d	.
=135	=135	=135
2r	1e	1g
2G	.	.
2A	4c	1e
.	4d	.
2c	4e	.
.	4f	.
=136	=136	=136
2B	2g	0r
2A	4f	.
.	4e	.
2B	2d	.
[2c	2c	.
=137	=137	=137
4c]	1d	2r
8B	.	.
8A	.	.
2B	.	2d
2c	1r	2e
2G	.	2g
=138	=138	=138
2A	0r	2f
2c	.	2e
2B	.	2g
2A	.	2f
=139	=139	=139
2c	2r	1e
2B	2G	.
1A	2A	1c
.	2c	.
=140	=140	=140
1r	2B	2d
.	2A	2f
2r	2c	2e
2G	2B	2d
=141	=141	=141
2A	1A	2f
2c	.	2e
2B	1r	2d
2A	.	4c
.	.	4d
=142	=142	=142
2c	1r	4e
.	.	4f
2B	.	2g
1A	1c	2a
.	.	2cc
=143	=143	=143
2r	2d	2b
2F	2f	2a
2G	2e	4b
.	.	4cc
2B-	2d	[2dd
=144	=144	=144
2A	2e	4dd]
.	.	4cc
2A	4d	1cc
.	4c	.
1G	1d	.
.	.	2b
=145	=145	=145
2r	1c	0cc
1c	.	.
.	2r	.
2F	[2f	.
=146	=146	=146
1A	2f]	2r
.	2c	1cc
1E	1e	.
.	.	2g
=147	=147	=147
2r	1.A	1a
1c	.	.
.	.	1e
2G	2B	.
=148	=148	=148
1A	2c	2r
.	2A	1cc
2A	1e	.
2E	.	2g
=149	=149	=149
2F	2A	1a
2D	1f	.
1A	.	2a
.	2c	2e
=150	=150	=150
2.D	1d	2f
.	.	2d
4E	.	.
2.F	2d	1a
.	2A	.
4G	.	.
=151	=151	=151
1A	2c	2e
.	2A	2.cc
2r	[1e	.
.	.	4b
[2c	.	2g
=152	=152	=152
2c]	2e]	2a
2G	2d	2.b
1A	2.c	.
.	.	4a
.	.	[2a
.	8B	.
.	8A	.
=153	=153	=153
2E	1B	2a]
2E	.	2g#
2F	2A	2.a
2D	2d	.
.	.	4g
=154	=154	=154
1A	2d	2f
.	2c#	2e
1D	1d	1f
=155	=155	=155
0A	0c#	0e
*-	*-	*-
!! Et in Spiritum
**kern	**kern	**kern	**kern
*Ibass	*Itenor	*Icalto	*Icant
!Bassus	!Tenor	!Altus	!Cantus
*clefF4	*clefGv2	*clefG2	*clefG2
*k[]	*k[]	*k[]	*k[]
*E:phr	*E:phr	*E:phr	*E:phr
*M4/2	*M4/2	*M4/2	*M4/2
=156	=156	=156	=156
1A	0r	0r	0r
2A	.	.	.
[2A	.	.	.
=157	=157	=157	=157
2A]	0r	1e	0r
2G	.	.	.
2A	.	2e	.
[2c	.	[2e	.
=158	=158	=158	=158
2c]	0r	2e]	0r
2B	.	2d	.
4A	.	2e	.
4G	.	.	.
4F	.	[2f	.
4E	.	.	.
=159	=159	=159	=159
2D	0r	2f]	1a
2C#	.	2e	.
1D	.	2d	2a
.	.	2c	[2a
=160	=160	=160	=160
1E	1r	2B	2a]
.	.	2e	2g
[1F	1A	2c	1a
.	.	[2f	.
=161	=161	=161	=161
1F]	2A	4f]	1.cc
.	.	8e	.
.	.	8d	.
.	1A	4c	.
.	.	4d	.
1E	.	2.e	.
.	2G	.	2b
.	.	8d	.
.	.	8e	.
=162	=162	=162	=162
0r	2A	2f	2a
.	1c	2e	4g
.	.	.	4f
.	.	1d	2.g
.	2B	.	.
.	.	.	8a
.	.	.	8b
=163	=163	=163	=163
1r	2A	2r	2cc
.	2G	1e	2b
2r	1F	.	2.a
[2A	.	2d	.
.	.	.	4b
=164	=164	=164	=164
2A]	1E	2e	2cc
2G	.	2g	2b
2A	1r	4f	2r
.	.	4e	.
2c	.	4e	[2a
.	.	8d	.
.	.	8c	.
=165	=165	=165	=165
1B	1r	1d	2a]
.	.	.	2g
2.A	2r	1e	2a
.	[2A	.	[2cc
8G	.	.	.
8F	.	.	.
=166	=166	=166	=166
1E	2A]	[0e	2cc]
.	2G	.	2.b
1r	2A	.	.
.	.	.	4a
.	2c	.	[2a
=167	=167	=167	=167
1.E	2.B	1e]	2a]
.	.	.	4g
.	4A	.	4f
.	4B	1r	2g
.	4c	.	.
2D	2d	.	2f
=168	=168	=168	=168
2E	2c	2r	2.e
2G	2B	1e	.
.	.	.	8f
.	.	.	8g
2F	2r	.	1a
2F	[2A	2d	.
=169	=169	=169	=169
1E	2A]	2e	0r
.	2G	2g	.
2D	2A	2f	.
2C	2c	2e	.
=170	=170	=170	=170
1D	2B	2.d	2r
.	2A	.	1a
.	.	4c	.
1E	2.e	2B	.
.	.	[2e	2g
.	4d	.	.
=171	=171	=171	=171
1AA	4c	2e]	2a
.	4B	.	.
.	2A	2c	2cc
1r	2G	2.d	2b
.	2F	.	2a
.	.	8c	.
.	.	8d	.
=172	=172	=172	=172
0r	2E	4e	2g
.	.	4d	.
.	2.A	4c	2f
.	.	4B	.
.	.	4c	2e
.	4G	4B	.
.	2F	2A	[2a
=173	=173	=173	=173
2r	1E	0B	2a]
1E	.	.	4g#
.	.	.	4f#
.	1r	.	1g#
2E	.	.	.
=174	=174	=174	=174
1F	2r	1A	1a
.	1A	.	.
2.D	.	1r	1r
.	2A	.	.
4C	.	.	.
=175	=175	=175	=175
2D	1B	0r	0r
2.E	.	.	.
.	2.G	.	.
4D	.	.	.
2C	.	.	.
.	4F	.	.
=176	=176	=176	=176
2BB	2G	0r	1r
2AA	2A	.	.
1E	2A	.	1b
.	2G#	.	.
=177	=177	=177	=177
1AA	1.A	1e	1cc
2.D	.	1f	2.a
.	[2d	.	.
4E	.	.	4g
=178	=178	=178	=178
2F#	2d]	2.d	2a
2G	2B	.	2b
.	.	4c	.
2G	2B	2d	2.g
2E	2c	2e	.
.	.	.	8f#
.	.	.	8g
=179	=179	=179	=179
0F	1A	1c	0a
.	2A	1d	.
.	2A	.	.
=180	=180	=180	=180
1E	1B	1e	2.g#
.	.	.	4a
2r	2.G	1B	1b
[2E	.	.	.
.	4F#	.	.
=181	=181	=181	=181
2E]	2G	2c	0r
2F	2A	2.A	.
2.D	2.F	.	.
.	.	4G	.
.	.	2A	.
4C	4E	.	.
=182	=182	=182	=182
2D	2F	2B	0r
1E	2.G	2c	.
.	.	2B	.
.	4F	.	.
2C	2E	[2A	.
=183	=183	=183	=183
1BB	2.D	2A]	1r
.	.	2G#	.
.	4E	.	.
2AA	1F	1A	2r
[2A	.	.	[2cc
=184	=184	=184	=184
2A]	1E	1.e	2cc]
2G#	.	.	2b
2A	2r	.	2cc
2E	[2c	2e	2g
=185	=185	=185	=185
2F	2c]	2d	2a
2G	2B	2d	4g
.	.	.	4f
[1C	2c	1g	2e
.	2G	.	2e
=186	=186	=186	=186
1C]	2A	4c	4e
.	.	4d	4f
.	4G	4e	4g
.	4F	4f	4a
1r	2E	2g	4b
.	.	.	4cc
.	2D	2f	[2dd
=187	=187	=187	=187
0r	1A	2e	4dd]
.	.	.	4cc
.	.	4d	1cc
.	.	4c	.
.	1G	1d	.
.	.	.	2b
=188	=188	=188	=188
2r	2C	0e	2cc
2C	2c	.	2g
2E	2c	.	2g
2E	2B	.	2g
=189	=189	=189	=189
1F	4A	1c	1a
.	4B	.	.
.	4c	.	.
.	4d	.	.
2C	1e	2c	2g
2E	.	2c	2e
=190	=190	=190	=190
2.D	2A	1d	2.f
.	2A	.	.
4D	.	.	4f
1AA	2.A	2c	1e
.	.	2A	.
.	4A	.	.
=191	=191	=191	=191
2r	2E	1.B	2r
2E	2e	.	2g
2E	2e	.	2g
2E	2e	2B	2g
=192	=192	=192	=192
2.F	2c	2A	2.a
.	2A	2c	.
4F	.	.	4a
2C	1e	2c	2g
2E	.	2c	2e
=193	=193	=193	=193
2.D	1A	2.d	2.f
4D	.	4d	4f
1AA	2.A	2c	2e
.	.	2A	2a
.	4A	.	.
=194	=194	=194	=194
2r	1E	2B	2a
2E	.	2B	2g#
2.F	2r	1A	1a
.	2A	.	.
4F	.	.	.
=195	=195	=195	=195
2F	2.c	0r	0r
2E	.	.	.
.	4c	.	.
2F	2c	.	.
2G	2B	.	.
=196	=196	=196	=196
1A	2c	1r	2r
.	2c	.	2e
1D	1d	2r	2.f
.	.	2A	.
.	.	.	4f
=197	=197	=197	=197
2r	1A	2.c	2f
1A	.	.	2e
.	.	4c	.
.	1r	2c	2f
2G	.	2B	2g
=198	=198	=198	=198
2F	2r	2c	1a
2D	1d	2d	.
1A	.	1e	1a
.	2c	.	.
=199	=199	=199	=199
1D	2B	1d	2r
.	2A	.	1a
1r	1B	2r	.
.	.	[2d	2g
=200	=200	=200	=200
1r	1A	2d]	2f
.	.	2c	2e
2r	1r	2B	2g
[2A	.	2A	2f
=201	=201	=201	=201
2A]	1r	2c	2e
2G	.	2B	2g
2F	2r	2A	4a
.	.	.	4b
2E	[2G	2e	4cc
.	.	.	8b
.	.	.	8a
=202	=202	=202	=202
2G	2G]	2.d	2b
2F	2A	.	2.a
.	.	8c	.
.	.	8d	.
2E	2B	1e	.
.	.	.	4g
2C	2c	.	[2g
=203	=203	=203	=203
1D	1A	1d	2g]
.	.	.	2f#
2E	[1G	2r	[1g
[2C	.	[2e	.
=204	=204	=204	=204
2C]	1G]	2e]	0g]
2BB	.	2d	.
4C	2r	1e	.
4D	.	.	.
4E	[2c	.	.
4F	.	.	.
=205	=205	=205	=205
1G	2c]	1d	2r
.	2B	.	1g
1A	1c	2r	.
.	.	[2c	2f
=206	=206	=206	=206
1G	1d	2c]	1g
.	.	2B	.
1r	1c	2c	2e
.	.	2A	2f
=207	=207	=207	=207
0r	0r	2B	2g
.	.	2c	2a
.	.	2d	2b
.	.	2e	[2cc
=208	=208	=208	=208
0r	2F	2f	2cc]
.	2G	2d	2b
.	2A	2c	2a
.	2B	2d	2g
=209	=209	=209	=209
0r	2c	2e	4a
.	.	.	4g
.	2d	1d	4f
.	.	.	4e
.	2B-	.	4f
.	.	.	4g
.	2c	[2c	2e
=210	=210	=210	=210
1r	1G	2c]	1d
.	.	2B	.
[1A	1c	1c	2e
.	.	.	2a
=211	=211	=211	=211
1A]	2r	2r	1cc
.	2c	1e	.
1c	1e	.	[1g
.	.	[2c	.
=212	=212	=212	=212
1G	2d	2c]	1g]
.	2d	4B	.
.	.	4A	.
2E	2.e	4B	1r
.	.	8A	.
.	.	8B	.
[2A	.	2c	.
.	4d	.	.
=213	=213	=213	=213
2A]	2c	2A	1e
2G	2B	2B	.
2F	2A	2c	[1a
2F	2A	2d	.
=214	=214	=214	=214
1E	1B	2e	2a]
.	.	2e	2g
4D	2r	2A	2f
4E	.	.	.
4F	2A	[2a	2f
4G	.	.	.
=215	=215	=215	=215
4A	1c	2a]	2.e
4B	.	.	.
1c	.	2.g	.
.	.	.	8d
.	.	.	8c
.	1G	.	2d
.	.	4f	.
2B	.	2d	[2g
=216	=216	=216	=216
1c	2E	2.e	4g]
.	.	.	4e
.	1A	.	2.cc
.	.	4d	.
1r	.	2c	.
.	.	.	4a
.	2G	[2d	[2b
=217	=217	=217	=217
1r	2F	4d]	4b]
.	.	4c	4a
.	2F	2A	1a
2r	1E	1B	.
2E	.	.	2g#
=218	=218	=218	=218
2.F	2r	1A	2a
.	1A	.	2a
4G	.	.	.
1A	.	1r	1cc
.	[2c	.	.
=219	=219	=219	=219
1.E	2c]	2r	1g
.	4B	2e	.
.	4A	.	.
.	2B	1g	1e
2C	2c	.	.
=220	=220	=220	=220
2D	1F	1d	1.a
2D	.	.	.
2E	2r	2B	.
2C	2E	[2e	2g
=221	=221	=221	=221
1D	1.A	2e]	2f
.	.	2d	2f
4AA	.	2c	2e
4BB	.	.	.
4C	2A	2c	4e
4D	.	.	4f
=222	=222	=222	=222
1E	2G	1B	4g
.	.	.	4a
.	2E	.	2.g
1C	1G	1c	.
.	.	.	4f
.	.	.	[2e
=223	=223	=223	=223
2D	1F	1A	2e]
2.A	.	.	2d
.	1E	1B	1e
4G#	.	.	.
2G#	.	.	.
=224	=224	=224	=224
1A	2r	2.c	1e
.	2.A	.	.
.	.	4d	.
1E	.	[1e	1b
.	4G#	.	.
.	2G#	.	.
=225	=225	=225	=225
0AA	2.A	0e]	2.cc
.	4B	.	4b
.	1c	.	1a
=226	=226	=226	=226
0E	0B	0e	0g#
==	==	==	==
*-	*-	*-	*-
!!!CDT: 1525/^1526/-1594/2/2
!!!OCY: Italia
!!!AGN: Mass (Paraphrase)
!!!AST: renaissance, vocal
!!!ASW: Hymn
!!!PWK: Masses, Book 7
!!!RNB: Cadence finals: A,C
!!!YOR: Le Opere Complete, v. 23, p. 30
!!!YOO: Rome, Italy: Fratelli Scalera
!!!END: 1992//
!!!EED: John Miller
!!!YEC: Copyright 2000, John Miller
!!!YEN: United States of America
!!!YEM: Rights to all derivative electronic formats reserved.
!!!YEM: Refer to licensing agreement for further details.
!!!YEM: This file must be accompanied by the licensing agreement.
!!!YEM: A copy of the licensing agreement may be found at http://www.music-cog.ohio-state.edu/HumdrumDatabases/Palestrina/license.txt
!!!EMD: converted to Humdrum by Bret Aarden
